public/images/woman_with_credit_card.svg

<svg width="328" height="231" viewBox="0 0 328 231" fill="none" xmlns="http://www.w3.org/2000/svg">
<path d="M301.949 230.482L302.935 230.463C302.554 219.496 301.384 208.571 299.434 197.771C295.169 174.65 288.076 159.466 278.354 152.639L277.787 153.446C300.499 169.393 301.937 229.873 301.949 230.482Z" fill="#2F2E41"/>
<path d="M289.619 230.246L290.606 230.227C290.584 229.135 289.968 203.391 279.833 196.275L279.267 197.082C288.993 203.911 289.614 229.984 289.619 230.246Z" fill="#2F2E41"/>
<path d="M272.176 153.536C274.899 153.536 277.107 151.327 277.107 148.604C277.107 145.88 274.899 143.672 272.176 143.672C269.452 143.672 267.244 145.88 267.244 148.604C267.244 151.327 269.452 153.536 272.176 153.536Z" fill="#004D61"/>
<path d="M274.618 195.95C277.342 195.95 279.55 193.742 279.55 191.018C279.55 188.294 277.342 186.086 274.618 186.086C271.894 186.086 269.686 188.294 269.686 191.018C269.686 193.742 271.894 195.95 274.618 195.95Z" fill="#004D61"/>
<path d="M291.918 156.492C290.991 162.412 293.407 167.707 293.407 167.707C293.407 167.707 297.325 163.404 298.252 157.484C299.179 151.563 296.763 146.268 296.763 146.268C296.763 146.268 292.845 150.572 291.918 156.492Z" fill="#2F2E41"/>
<path d="M275.797 170.87C281.465 172.814 287.1 171.358 287.1 171.358C287.1 171.358 283.545 166.75 277.877 164.806C272.209 162.861 266.574 164.318 266.574 164.318C266.574 164.318 270.129 168.926 275.797 170.87Z" fill="#2F2E41"/>
<path d="M275.615 208.432C278.18 209.238 280.912 209.356 283.538 208.774C281.871 206.652 279.626 205.057 277.073 204.181C274.52 203.306 271.769 203.187 269.15 203.839C270.866 205.91 273.095 207.493 275.615 208.432Z" fill="#2F2E41"/>
<path d="M160.481 77.0861L160.286 76.9849L128.489 60.4504L128.41 60.4092L128.35 60.3429L128.72 60.0068C128.35 60.3429 128.35 60.3429 128.35 60.3428L128.349 60.3425L128.348 60.3409L128.342 60.3347L128.319 60.3096L128.229 60.2106C128.15 60.1236 128.032 59.9951 127.88 59.8295C127.576 59.4984 127.133 59.0192 126.581 58.4275C125.477 57.244 123.935 55.6108 122.185 53.8121C118.677 50.2088 114.351 45.9619 111.026 43.3282C107.727 40.7152 105.689 40.4645 104.548 40.727C103.973 40.8593 103.583 41.1302 103.337 41.3629C103.214 41.4799 103.127 41.5873 103.073 41.6621C103.046 41.6995 103.028 41.7284 103.017 41.7459C103.012 41.7546 103.008 41.7605 103.007 41.7631M160.481 77.0861L102.566 41.5267M160.481 77.0861L160.687 77.0114C161.526 76.7078 162.434 76.6484 163.305 76.8401C164.176 77.0319 164.975 77.4669 165.609 78.0945C166.243 78.7222 166.685 79.5169 166.885 80.3862C167.086 81.2554 167.035 82.1637 166.74 83.0053C166.444 83.847 165.916 84.5876 165.216 85.141C164.517 85.6944 163.674 86.038 162.787 86.1318C161.9 86.2256 161.005 86.0657 160.205 85.6709C159.405 85.276 158.734 84.6622 158.269 83.901L158.181 83.7574L158.024 83.696L125.221 70.8475M160.481 77.0861L124.961 71.2828M103.007 41.7631L103.007 41.762L103.006 41.7636M103.007 41.7631L103.007 41.7632L103.006 41.7644L103.006 41.7646C103.006 41.7646 103.006 41.7642 103.006 41.7636M103.007 41.7631C103.007 41.7633 103.006 41.7634 103.006 41.7636M103.006 41.7636L103.002 41.7725L102.995 41.784L100.345 46.2002M100.345 46.2002L100.153 45.9331L99.7471 46.225M100.345 46.2002L100.176 46.4823L99.7471 46.225M100.345 46.2002L106.93 55.3582M99.7471 46.225L102.566 41.5267M99.7471 46.225L106.56 55.7M102.566 41.5267C103.007 41.7602 103.008 41.761 103.008 41.7613L103.008 41.7606L102.566 41.5267ZM106.56 55.7L106.883 55.3184L106.93 55.3582M106.56 55.7L124.961 71.2828M106.56 55.7L106.966 55.4081L106.93 55.3582M106.93 55.3582L125.221 70.8475M124.961 71.2828L125.144 70.8172L125.221 70.8475M124.961 71.2828L125.284 70.9012L125.221 70.8475" stroke="#DEE9EA"/>
<path d="M65.1857 80.9562C65.6851 80.9321 65.6851 80.9321 65.6851 80.932L65.6851 80.9315L65.685 80.9294L65.6846 80.9209L65.683 80.887L65.6768 80.7533C65.6715 80.6355 65.6638 80.4615 65.6543 80.2368C65.6354 79.7875 65.6094 79.1358 65.5813 78.3271C65.5252 76.7095 65.4605 74.4644 65.4266 71.9545C65.3588 66.9266 65.415 60.8645 65.9039 56.6509C66.389 52.4705 67.6524 50.8526 68.6447 50.2314C69.1451 49.9182 69.6126 49.8337 69.9507 49.8247C70.1206 49.8202 70.2579 49.8348 70.3491 49.8495C70.3945 49.8568 70.4281 49.8641 70.4481 49.8689C70.4581 49.8713 70.4646 49.873 70.4675 49.8738C70.4676 49.8739 70.4675 49.8738 70.4676 49.8738C70.4688 49.8742 70.4694 49.8744 70.469 49.8742L70.4776 49.8769L70.4907 49.8802L75.4871 51.1293L77.3067 62.261L75.3254 86.1476L61.2153 118.428L61.1476 118.583L61.1878 118.747C61.4005 119.617 61.3617 120.529 61.076 121.378C60.7904 122.226 60.2695 122.976 59.5741 123.54C58.8787 124.104 58.0374 124.459 57.1482 124.563C56.2589 124.668 55.3583 124.517 54.5512 124.13C53.7441 123.742 53.0638 123.133 52.5894 122.374C52.115 121.614 51.8661 120.736 51.8717 119.841C51.8772 118.945 52.137 118.07 52.6208 117.317C53.1046 116.563 53.7924 115.963 54.6042 115.585L54.8039 115.492L54.8702 115.282L65.6625 81.1067L65.6894 81.0214L65.6851 80.9321L65.1857 80.9562Z" stroke="#DEE9EA"/>
<path d="M131.476 197.536L128.29 223.365L122.277 223.365L122.275 197.536L131.476 197.536Z" stroke="#DEE9EA"/>
<path d="M120.002 221.594L133.701 221.593H133.701C136.016 221.594 138.237 222.513 139.874 224.15C141.511 225.787 142.431 228.008 142.431 230.323V230.607L120.003 230.607L120.002 221.594Z" fill="#2F2E41"/>
<path d="M55.6094 197.536L52.4239 223.365L46.4102 223.365L46.4092 197.536L55.6094 197.536Z" stroke="#DEE9EA"/>
<path d="M44.136 221.594L57.8343 221.593H57.8348C60.15 221.594 62.3704 222.513 64.0075 224.15C65.6445 225.787 66.5643 228.008 66.5645 230.323V230.607L44.1364 230.607L44.136 221.594Z" fill="#2F2E41"/>
<path d="M80.2492 39.2347L68.7122 49.0833L78.1804 79.0457L80.3167 85.7364C80.3167 85.7364 67.2719 97.7638 59.2005 131.362C51.1291 164.96 37.9253 209.605 37.9253 209.605L65.7963 217.583L88.4712 141.58L115.142 201.206L118.222 218.842L141.957 211.844L136.358 167.614L108.364 91.0512L111.272 70.7557C111.272 70.7557 115.639 60.6255 108.053 49.9004L105.673 39.8227L97.1493 37.7231L80.2492 39.2347Z" fill="#2F2E41"/>
<path d="M99.4151 33.3808H68.2243C67.7151 33.3802 67.2269 33.1777 66.8669 32.8176C66.5069 32.4576 66.3044 31.9696 66.3037 31.4605V18.016C66.3037 13.3705 68.1491 8.9152 71.434 5.63031C74.7189 2.34543 79.1742 0.5 83.8197 0.5C88.4652 0.5 92.9205 2.34543 96.2053 5.63031C99.4902 8.9152 101.336 13.3705 101.336 18.016V31.4602C101.335 31.9694 101.133 32.4576 100.772 32.8176C100.412 33.1777 99.9243 33.3802 99.4151 33.3808Z" stroke="#DEE9EA"/>
<path d="M99.1119 26.6946C102.611 20.2936 100.259 12.268 93.8576 8.76893C87.4566 5.26983 79.431 7.62227 75.9319 14.0233C72.4328 20.4242 74.7852 28.4499 81.1862 31.949C87.5872 35.4481 95.6128 33.0956 99.1119 26.6946Z" fill="#004D61"/>
<path d="M93.12 26.8664C93.4459 26.7404 93.7436 26.5388 93.993 26.275C94.1581 26.0869 94.284 25.8612 94.3619 25.6137C94.4397 25.3662 94.4677 25.1029 94.4438 24.8422C94.43 24.6564 94.3774 24.4766 94.2903 24.317C94.2032 24.1573 94.0838 24.0221 93.9416 23.9219C93.5726 23.6711 93.085 23.6805 92.5927 23.9328L92.5359 19.5331L92.1361 19.5394L92.2029 24.7117L92.5073 24.4911C92.8602 24.2356 93.3673 24.0504 93.7321 24.2984C93.8223 24.3641 93.8977 24.4519 93.9522 24.555C94.0067 24.6581 94.039 24.7737 94.0466 24.8928C94.0634 25.0871 94.0422 25.283 93.9843 25.4673C93.9265 25.6517 93.8334 25.8201 93.7114 25.9611C93.278 26.4365 92.6365 26.5958 91.9043 26.7415L91.9751 27.1765C92.3644 27.1111 92.7475 27.0074 93.12 26.8664Z" fill="#DEE9EA"/>
<path d="M99.4747 20.3824L96.0188 20.9058L96.116 21.5474L99.5719 21.024L99.4747 20.3824Z" fill="#DEE9EA"/>
<path d="M81.8104 20.3824L85.2664 20.9058L85.1692 21.5474L81.7133 21.024L81.8104 20.3824Z" fill="#DEE9EA"/>
<path d="M86.3583 16.4539L85.4989 18.8604H83.38L83.0256 13.8975L82.056 13.765L80.2363 18.8604H75.4082C75.4721 15.2983 76.9149 11.896 79.4383 9.37251C82.0164 6.79447 85.5117 5.34429 89.1576 5.34009H91.8461C95.492 5.34428 98.9874 6.79446 101.565 9.3725C104.089 11.896 105.532 15.2983 105.596 18.8604H87.4904L87.3279 16.5865L86.3583 16.4539Z" stroke="#DEE9EA"/>
<path d="M202.368 157.399L79.9681 200.674C76.9417 201.74 73.6161 201.562 70.7207 200.18C67.8254 198.797 65.5967 196.322 64.5238 193.298L43.4972 133.827C42.4311 130.801 42.6089 127.475 43.9917 124.58C45.3745 121.684 47.8493 119.456 50.8732 118.383L173.273 75.1073C176.299 74.0412 179.625 74.219 182.52 75.6018C185.416 76.9846 187.644 79.4594 188.717 82.4833L209.744 141.954C210.81 144.981 210.632 148.306 209.249 151.202C207.866 154.097 205.392 156.326 202.368 157.399Z" fill="white"/>
<path d="M209.744 141.954L209.855 142.269C210.876 145.159 210.708 148.337 209.386 151.102C208.065 153.868 205.699 155.996 202.809 157.017L79.7968 200.509C76.9073 201.53 73.7305 201.362 70.965 200.041C68.1995 198.721 66.0718 196.355 65.05 193.466L64.9387 193.151L209.744 141.954Z" fill="#F2F2F2"/>
<path d="M72.3297 132.191C64.2165 137.529 53.8182 133.512 50.1816 127.66L50.7614 127.33C57.6685 123.025 67.9261 125.423 72.3297 132.191Z" fill="#004D61"/>
<path d="M174 147.337C172.014 148.039 170.226 148.007 168.685 147.241C165.202 145.511 163.568 140.379 162.254 136.255C161.872 135.056 161.511 133.923 161.144 132.997L161.138 132.982C160.499 131.145 160.61 129.13 161.448 127.374C162.286 125.619 163.783 124.265 165.613 123.606L182.077 117.785C184.06 117.084 185.847 117.116 187.386 117.88C190.869 119.609 192.505 124.739 193.819 128.861C194.202 130.063 194.564 131.198 194.933 132.126C195.576 133.965 195.467 135.983 194.629 137.742C193.792 139.501 192.293 140.858 190.46 141.517L174 147.337ZM161.828 132.733C162.204 133.681 162.568 134.824 162.953 136.033C164.224 140.024 165.807 144.992 169.012 146.584C170.387 147.268 171.939 147.288 173.756 146.646L190.215 140.826C191.863 140.234 193.211 139.014 193.966 137.433C194.721 135.852 194.822 134.037 194.246 132.382C193.873 131.445 193.508 130.298 193.12 129.084C191.848 125.094 190.264 120.128 187.06 118.537C185.686 117.855 184.136 117.835 182.322 118.477L165.859 124.297C164.212 124.89 162.865 126.108 162.111 127.687C161.356 129.266 161.255 131.08 161.828 132.733Z" fill="#3F3D56"/>
<path d="M68.9173 134.113C66.0243 135.116 62.9078 135.287 59.9222 134.607C55.5621 133.65 51.6051 131.047 49.5957 127.814L49.3943 127.49L50.2992 126.975C57.3102 122.609 67.8235 124.976 72.3614 131.948L72.5604 132.254L72.2557 132.454C71.2142 133.14 70.0932 133.697 68.9173 134.113ZM50.426 127.747C52.3926 130.669 56.052 133.006 60.0795 133.891C63.9946 134.805 68.1122 134.141 71.5408 132.041C67.1019 125.62 57.2673 123.491 50.6811 127.602L50.426 127.747Z" fill="#3F3D56"/>
<path d="M73.2175 176.797C72.1896 177.204 71.0704 177.324 69.9799 177.142C68.8894 176.961 67.8688 176.487 67.0276 175.77C66.043 174.909 65.2966 173.809 64.8603 172.577C64.4241 171.344 64.3126 170.02 64.5367 168.731C64.7449 167.623 65.2559 166.594 66.0132 165.758C66.7704 164.922 67.7442 164.312 68.8269 163.995L90.7633 156.24C91.8044 155.808 92.9443 155.672 94.0576 155.848C95.1708 156.023 96.2141 156.502 97.0723 157.232C98.0564 158.093 98.8022 159.193 99.2379 160.426C99.6736 161.658 99.7846 162.982 99.56 164.27C99.1269 166.534 97.5986 168.202 95.269 169L73.3322 176.756C73.2939 176.77 73.2557 176.784 73.2175 176.797ZM68.9633 164.724C68.0273 165.013 67.1877 165.552 66.5347 166.282C65.8818 167.012 65.4401 167.906 65.2572 168.869C65.0553 170.029 65.1557 171.223 65.5488 172.333C65.9419 173.444 66.6143 174.434 67.5014 175.209C68.2618 175.854 69.1858 176.275 70.1709 176.426C71.156 176.577 72.1638 176.453 73.0825 176.066L95.0297 168.307C95.9881 168.03 96.8513 167.494 97.5237 166.757C98.1961 166.021 98.6516 165.112 98.8396 164.133C99.0419 162.972 98.942 161.779 98.5494 160.669C98.1568 159.558 97.4848 158.567 96.5982 157.792C95.8367 157.148 94.9123 156.727 93.9268 156.575C92.9413 156.423 91.9329 156.545 91.0127 156.929L69.0641 164.689C69.0304 164.701 68.9966 164.712 68.9633 164.724L68.9633 164.724Z" fill="#3F3D56"/>
<path d="M174.147 129.839L167.232 132.284C166.774 132.446 166.269 132.42 165.831 132.21C165.392 132 165.054 131.625 164.892 131.167C164.73 130.708 164.757 130.204 164.966 129.765C165.176 129.326 165.551 128.989 166.01 128.827L172.925 126.382C173.383 126.219 173.887 126.246 174.326 126.456C174.765 126.665 175.103 127.041 175.265 127.499C175.427 127.958 175.4 128.462 175.191 128.901C174.981 129.34 174.606 129.677 174.147 129.839Z" fill="#004D61"/>
<path d="M176.103 135.371L169.188 137.816C168.729 137.978 168.225 137.952 167.786 137.742C167.348 137.533 167.01 137.157 166.848 136.699C166.686 136.24 166.712 135.736 166.922 135.297C167.132 134.858 167.507 134.521 167.965 134.359L174.881 131.914C175.339 131.752 175.843 131.778 176.282 131.988C176.721 132.197 177.059 132.573 177.221 133.031C177.383 133.49 177.356 133.994 177.147 134.433C176.937 134.872 176.562 135.209 176.103 135.371Z" fill="#004D61"/>
<path d="M178.059 140.904L171.144 143.349C170.917 143.429 170.676 143.464 170.436 143.451C170.195 143.438 169.96 143.378 169.742 143.274C169.525 143.171 169.33 143.025 169.169 142.846C169.008 142.667 168.884 142.458 168.804 142.231C168.724 142.004 168.689 141.763 168.702 141.523C168.714 141.282 168.774 141.047 168.878 140.829C168.982 140.612 169.127 140.417 169.306 140.256C169.485 140.095 169.694 139.971 169.921 139.891L176.837 137.446C177.064 137.366 177.304 137.331 177.545 137.344C177.785 137.356 178.021 137.416 178.238 137.52C178.455 137.624 178.65 137.769 178.811 137.948C178.972 138.127 179.096 138.336 179.177 138.563C179.257 138.791 179.292 139.031 179.279 139.272C179.266 139.512 179.206 139.748 179.103 139.965C178.999 140.182 178.853 140.377 178.674 140.538C178.495 140.699 178.286 140.823 178.059 140.904Z" fill="#004D61"/>
<path d="M186.249 125.561L179.334 128.006C179.107 128.086 178.866 128.121 178.625 128.108C178.385 128.095 178.149 128.035 177.932 127.931C177.715 127.828 177.52 127.682 177.359 127.503C177.198 127.324 177.074 127.115 176.994 126.888C176.913 126.661 176.879 126.42 176.891 126.18C176.904 125.939 176.964 125.704 177.068 125.487C177.171 125.269 177.317 125.075 177.496 124.914C177.675 124.752 177.884 124.628 178.111 124.548L185.026 122.103C185.485 121.941 185.989 121.968 186.428 122.177C186.867 122.387 187.204 122.762 187.366 123.221C187.529 123.679 187.502 124.183 187.292 124.622C187.083 125.061 186.707 125.399 186.249 125.561Z" fill="#004D61"/>
<path d="M188.205 131.093L181.29 133.538C181.063 133.618 180.822 133.653 180.582 133.64C180.341 133.627 180.105 133.567 179.888 133.464C179.671 133.36 179.476 133.214 179.315 133.035C179.154 132.856 179.03 132.647 178.95 132.42C178.869 132.193 178.835 131.953 178.847 131.712C178.86 131.472 178.92 131.236 179.024 131.019C179.128 130.801 179.273 130.607 179.452 130.446C179.631 130.285 179.84 130.16 180.067 130.08L186.982 127.635C187.209 127.555 187.45 127.52 187.691 127.533C187.931 127.546 188.167 127.606 188.384 127.709C188.601 127.813 188.796 127.959 188.957 128.138C189.118 128.317 189.242 128.526 189.322 128.753C189.403 128.98 189.437 129.22 189.425 129.461C189.412 129.701 189.352 129.937 189.248 130.154C189.145 130.372 188.999 130.566 188.82 130.727C188.641 130.888 188.432 131.013 188.205 131.093Z" fill="#004D61"/>
<path d="M190.161 136.625L183.245 139.07C182.787 139.232 182.283 139.205 181.844 138.996C181.405 138.786 181.068 138.411 180.905 137.952C180.743 137.494 180.77 136.99 180.98 136.551C181.189 136.112 181.564 135.774 182.023 135.612L188.938 133.167C189.165 133.087 189.406 133.052 189.646 133.065C189.887 133.078 190.122 133.138 190.34 133.242C190.557 133.345 190.752 133.491 190.913 133.67C191.074 133.849 191.198 134.058 191.278 134.285C191.359 134.512 191.393 134.753 191.381 134.993C191.368 135.234 191.308 135.469 191.204 135.686C191.1 135.904 190.955 136.098 190.776 136.26C190.597 136.421 190.388 136.545 190.161 136.625Z" fill="#004D61"/>
<path d="M193.296 95.4287L48.4902 146.626L48.7347 147.318L193.54 96.1202L193.296 95.4287Z" fill="#3F3D56"/>
<path d="M202.368 157.399L79.9681 200.674C76.9417 201.74 73.6161 201.562 70.7207 200.18C67.8254 198.797 65.5967 196.322 64.5238 193.298L43.4972 133.827C42.4311 130.801 42.6089 127.475 43.9917 124.58C45.3745 121.684 47.8493 119.456 50.8732 118.383L173.273 75.1073C176.299 74.0412 179.625 74.219 182.52 75.6018C185.416 76.9846 187.644 79.4594 188.717 82.4833L209.744 141.954C210.81 144.981 210.632 148.306 209.249 151.202C207.866 154.097 205.392 156.326 202.368 157.399ZM51.1177 119.074C48.2771 120.082 45.9523 122.176 44.6533 124.896C43.3543 127.616 43.1873 130.74 44.1888 133.583L65.2153 193.054C66.2233 195.894 68.3168 198.219 71.0367 199.518C73.7566 200.817 76.8807 200.984 79.7236 199.983L202.123 156.707C204.964 155.699 207.289 153.606 208.588 150.886C209.887 148.166 210.054 145.042 209.052 142.199L188.026 82.7278C187.018 79.8872 184.924 77.5624 182.204 76.2634C179.484 74.9644 176.36 74.7974 173.517 75.7989L51.1177 119.074Z" fill="#3F3D56"/>
<path d="M327.556 231H0.627432C0.509784 231 0.396953 230.955 0.313763 230.876C0.230573 230.796 0.183838 230.688 0.183838 230.575C0.183838 230.463 0.230573 230.355 0.313763 230.275C0.396953 230.195 0.509784 230.151 0.627432 230.151H327.556C327.674 230.151 327.787 230.195 327.87 230.275C327.953 230.355 328 230.463 328 230.575C328 230.688 327.953 230.796 327.87 230.876C327.787 230.955 327.674 231 327.556 231Z" fill="#444444"/>
</svg>

<svg xmlns="http://www.w3.org/2000/svg" width="328" height="231" fill="none"><path fill="#2F2E41" d="m301.949 230.482.986-.019a229 229 0 0 0-3.501-32.692c-4.265-23.121-11.358-38.305-21.08-45.132l-.567.807c22.712 15.947 24.15 76.427 24.162 77.036M289.619 230.246l.987-.019c-.022-1.092-.638-26.836-10.773-33.952l-.566.807c9.726 6.829 10.347 32.902 10.352 33.164"/><path fill="#004D61" d="M272.176 153.536a4.932 4.932 0 1 0-.003-9.865 4.932 4.932 0 0 0 .003 9.865M274.618 195.95a4.932 4.932 0 1 0 0-9.864 4.932 4.932 0 0 0 0 9.864"/><path fill="#2F2E41" d="M291.918 156.492c-.927 5.92 1.489 11.215 1.489 11.215s3.918-4.303 4.845-10.223-1.489-11.216-1.489-11.216-3.918 4.304-4.845 10.224M275.797 170.87c5.668 1.944 11.303.488 11.303.488s-3.555-4.608-9.223-6.552c-5.668-1.945-11.303-.488-11.303-.488s3.555 4.608 9.223 6.552M275.615 208.432a15.35 15.35 0 0 0 7.923.342 14 14 0 0 0-14.388-4.935 15.36 15.36 0 0 0 6.465 4.593"/><path stroke="#DEE9EA" d="m160.481 77.086-.195-.101-31.797-16.535-.079-.04-.06-.067.37-.336-.37.336h-.001l-.001-.002-.006-.006-.023-.025-.09-.1-.349-.38a308.053 308.053 0 0 0-5.695-6.017c-3.508-3.604-7.834-7.851-11.159-10.485-3.299-2.613-5.337-2.864-6.478-2.601a2.6 2.6 0 0 0-1.211.636c-.123.117-.21.224-.264.3q-.04.056-.056.083l-.01.017m57.474 35.323-57.915-35.56m57.915 35.56.206-.075a4.716 4.716 0 0 1 6.053 5.994 4.716 4.716 0 0 1-6.535 2.666 4.7 4.7 0 0 1-1.936-1.77l-.088-.144-.157-.061-32.803-12.849m35.26 6.24-35.52-5.804m-21.954-29.52v-.001l-.001.002m.001 0h-.001m.001 0h-.001m0 0-.004.008-.007.012-2.65 4.416m0 0-.192-.267-.406.292m.598-.025-.169.282-.429-.257m.598-.025 6.585 9.158m-7.183-9.133 2.819-4.698m-2.819 4.698 6.813 9.475m-3.994-14.173.442.234zM106.56 55.7l.323-.382.047.04m-.37.342 18.401 15.583M106.56 55.7l.406-.292-.036-.05m0 0 18.291 15.49m-.26.435.183-.466.077.03m-.26.436.323-.382-.063-.053M65.186 80.956l.5-.024-.001-.003v-.008l-.002-.034-.006-.134a191 191 0 0 1-.096-2.426c-.056-1.617-.12-3.863-.154-6.373-.068-5.027-.012-11.09.477-15.303.485-4.18 1.748-5.798 2.74-6.42.501-.313.969-.397 1.307-.406a2.2 2.2 0 0 1 .517.049h.001l.009.003.013.003 4.996 1.25 1.82 11.131-1.982 23.887-14.11 32.28-.067.155.04.164a4.727 4.727 0 0 1-6.637 5.383 4.73 4.73 0 0 1-2.68-4.289 4.72 4.72 0 0 1 2.733-4.256l.2-.093.066-.21 10.792-34.175.027-.086-.004-.089zM131.476 197.536l-3.186 25.829h-6.013l-.002-25.829z"/><path fill="#2F2E41" d="m120.002 221.594 13.699-.001a8.731 8.731 0 0 1 8.73 8.73v.284h-22.428z"/><path stroke="#DEE9EA" d="m55.61 197.536-3.186 25.829H46.41v-25.829z"/><path fill="#2F2E41" d="m44.136 221.594 13.698-.001a8.734 8.734 0 0 1 8.73 8.73v.284H44.137zM80.25 39.235l-11.538 9.848 9.468 29.963 2.137 6.69S67.272 97.764 59.2 131.362s-21.276 78.243-21.276 78.243l27.871 7.978 22.675-76.003 26.671 59.626 3.08 17.636 23.735-6.998-5.599-44.23-27.994-76.563 2.908-20.295s4.367-10.13-3.219-20.856l-2.38-10.077-8.524-2.1z"/><path stroke="#DEE9EA" d="M99.415 33.38h-31.19a1.923 1.923 0 0 1-1.921-1.92V18.017a17.516 17.516 0 1 1 35.032 0V31.46a1.92 1.92 0 0 1-1.92 1.92Z"/><path fill="#004D61" d="M99.112 26.695c3.499-6.401 1.147-14.427-5.254-17.926-6.401-3.5-14.427-1.147-17.926 5.254-3.5 6.401-1.147 14.427 5.254 17.926 6.401 3.5 14.427 1.147 17.926-5.254"/><path fill="#DEE9EA" d="M93.12 26.866a2.4 2.4 0 0 0 .873-.591c.165-.188.291-.414.369-.661s.106-.511.082-.772a1.3 1.3 0 0 0-.154-.525 1.2 1.2 0 0 0-.348-.395c-.37-.25-.857-.242-1.35.01l-.056-4.399-.4.006.067 5.173.304-.22c.353-.256.86-.442 1.225-.194a.75.75 0 0 1 .22.257.8.8 0 0 1 .095.338c.016.194-.005.39-.063.574a1.4 1.4 0 0 1-.273.494c-.433.476-1.075.635-1.807.78l.071.436q.586-.1 1.145-.31M99.475 20.382l-3.456.524.097.641 3.456-.523zM81.81 20.382l3.456.524-.097.641-3.456-.523z"/><path stroke="#DEE9EA" d="m86.358 16.454-.86 2.406H83.38l-.354-4.962-.97-.133-1.82 5.095h-4.828a13.77 13.77 0 0 1 13.75-13.52h2.688a13.766 13.766 0 0 1 13.75 13.52H87.49l-.162-2.273z"/><path fill="#fff" d="m202.368 157.399-122.4 43.275a12.117 12.117 0 0 1-15.444-7.376l-21.027-59.471a12.115 12.115 0 0 1 7.376-15.444l122.4-43.276a12.115 12.115 0 0 1 15.444 7.376l21.027 59.471a12.117 12.117 0 0 1-7.376 15.445"/><path fill="#F2F2F2" d="m209.744 141.954.111.315a11.555 11.555 0 0 1-7.046 14.748L79.797 200.509a11.557 11.557 0 0 1-14.747-7.043l-.111-.315z"/><path fill="#004D61" d="M72.33 132.191c-8.114 5.338-18.512 1.321-22.148-4.531l.58-.33c6.907-4.305 17.164-1.907 21.568 4.861"/><path fill="#3F3D56" d="M174 147.337c-1.986.702-3.774.67-5.315-.096-3.483-1.73-5.117-6.862-6.431-10.986-.382-1.199-.743-2.332-1.11-3.258l-.006-.015a7.386 7.386 0 0 1 4.475-9.376l16.464-5.821c1.983-.701 3.77-.669 5.309.095 3.483 1.729 5.119 6.859 6.433 10.981.383 1.202.745 2.337 1.114 3.265a7.387 7.387 0 0 1-4.473 9.391zm-12.172-14.604c.376.948.74 2.091 1.125 3.3 1.271 3.991 2.854 8.959 6.059 10.551 1.375.684 2.927.704 4.744.062l16.459-5.82a6.65 6.65 0 0 0 4.031-8.444c-.373-.937-.738-2.084-1.126-3.298-1.272-3.99-2.856-8.956-6.06-10.547-1.374-.682-2.924-.702-4.738-.06l-16.463 5.82a6.65 6.65 0 0 0-4.031 8.436M68.917 134.113a16.36 16.36 0 0 1-8.995.494c-4.36-.957-8.317-3.56-10.326-6.793l-.202-.324.905-.515c7.011-4.366 17.524-1.999 22.062 4.973l.2.306-.305.2a15.4 15.4 0 0 1-3.339 1.659m-18.491-6.366c1.967 2.922 5.626 5.259 9.654 6.144 3.915.914 8.032.25 11.46-1.85-4.438-6.421-14.273-8.55-20.859-4.439zM73.218 176.797a6.087 6.087 0 0 1-6.19-1.027 7.62 7.62 0 0 1-2.491-7.039 6.11 6.11 0 0 1 4.29-4.736l21.936-7.755a6.12 6.12 0 0 1 6.309.992 7.62 7.62 0 0 1 2.488 7.038c-.433 2.264-1.961 3.932-4.291 4.73l-21.937 7.756zm-4.255-12.073a5.39 5.39 0 0 0-3.706 4.145 6.86 6.86 0 0 0 2.244 6.34 5.39 5.39 0 0 0 5.581.857l21.948-7.759a5.41 5.41 0 0 0 3.81-4.174 6.86 6.86 0 0 0-2.242-6.341 5.42 5.42 0 0 0-5.585-.863l-21.949 7.76z"/><path fill="#004D61" d="m174.147 129.839-6.915 2.445a1.83 1.83 0 0 1-2.34-1.117 1.833 1.833 0 0 1 1.118-2.34l6.915-2.445a1.832 1.832 0 1 1 1.222 3.457M176.103 135.371l-6.915 2.445a1.834 1.834 0 1 1-1.223-3.457l6.916-2.445a1.83 1.83 0 0 1 2.34 1.117 1.833 1.833 0 0 1-1.118 2.34M178.059 140.904l-6.915 2.445a1.834 1.834 0 0 1-1.223-3.458l6.916-2.445a1.83 1.83 0 0 1 1.974.502 1.839 1.839 0 0 1-.137 2.59 1.9 1.9 0 0 1-.615.366M186.249 125.561l-6.915 2.445a1.836 1.836 0 0 1-2.443-1.826 1.83 1.83 0 0 1 .605-1.266c.179-.162.388-.286.615-.366l6.915-2.445a1.833 1.833 0 0 1 2.266 2.519 1.83 1.83 0 0 1-1.043.939M188.205 131.093l-6.915 2.445a1.834 1.834 0 0 1-1.223-3.458l6.915-2.445a1.836 1.836 0 0 1 2.443 1.826 1.83 1.83 0 0 1-1.22 1.632M190.161 136.625l-6.916 2.445a1.836 1.836 0 0 1-2.34-1.118 1.83 1.83 0 0 1 .075-1.401 1.83 1.83 0 0 1 1.043-.939l6.915-2.445a1.834 1.834 0 0 1 1.223 3.458"/><path fill="#3F3D56" d="M193.296 95.429 48.49 146.626l.245.692L193.54 96.12z"/><path fill="#3F3D56" d="m202.368 157.399-122.4 43.275a12.117 12.117 0 0 1-15.444-7.376l-21.027-59.471a12.115 12.115 0 0 1 7.376-15.444l122.4-43.276a12.115 12.115 0 0 1 15.444 7.376l21.027 59.471a12.117 12.117 0 0 1-7.376 15.445m-151.25-38.325a11.383 11.383 0 0 0-6.93 14.509l21.027 59.471a11.383 11.383 0 0 0 14.509 6.929l122.399-43.276a11.38 11.38 0 0 0 6.929-14.508l-21.026-59.471a11.383 11.383 0 0 0-14.509-6.93z"/><path fill="#444" d="M327.556 231H.627a.46.46 0 0 1-.313-.124.42.42 0 0 1-.13-.301c0-.112.047-.22.13-.3a.45.45 0 0 1 .313-.124h326.929c.118 0 .231.044.314.124s.13.188.13.3a.42.42 0 0 1-.13.301.46.46 0 0 1-.314.124"/></svg>
